exported-svg/inbox.svg

<svg height="24" viewBox="0 0 24 24" width="24" xmlns="http://www.w3.org/2000/svg"><path d="m22.45 11.79c-.002-.004-.001-.009-.003-.014l-3.449-6.889c-.424-.855-1.281-1.387-2.238-1.387h-9.52c-.956 0-1.813.532-2.237 1.386l-3.45 6.89c-.002.004-.001.009-.003.014-.03.064-.05.134-.05.21v6c0 1.379 1.122 2.5 2.5 2.5h16c1.379 0 2.5-1.121 2.5-2.5v-6c0-.076-.02-.146-.05-.21zm-16.552-6.458c.255-.513.769-.832 1.342-.832h9.52c.573 0 1.088.319 1.343.833l3.087 6.167h-5.19c-.167 0-.323.083-.416.223l-1.852 2.777h-3.465l-1.852-2.777c-.092-.14-.248-.223-.415-.223h-5.19zm14.102 14.168h-16c-.827 0-1.5-.673-1.5-1.5v-5.5h5.232l1.852 2.777c.093.139.249.223.416.223h4c.167 0 .323-.084.416-.223l1.852-2.777h5.232v5.5c0 .827-.673 1.5-1.5 1.5z"/></svg>

<?xml version="1.0" encoding="UTF-8"?>
<svg width="24px" height="24px" viewBox="0 0 24 24" version="1.1" xmlns="http://www.w3.org/2000/svg" xmlns:xlink="http://www.w3.org/1999/xlink">
    <!-- Generator: Sketch 55.2 (78181) - https://sketchapp.com -->
    <title>inbox</title>
    <desc>Created with Sketch.</desc>
    <g id="inbox" stroke="none" stroke-width="1" fill="none" fill-rule="evenodd">
        <path d="M22.45,11.79 C22.448,11.786 22.449,11.781 22.447,11.776 L18.998,4.887 C18.574,4.032 17.717,3.5 16.76,3.5 L7.24,3.5 C6.284,3.5 5.427,4.032 5.003,4.886 L1.553,11.776 C1.551,11.78 1.552,11.785 1.55,11.79 C1.52,11.854 1.5,11.924 1.5,12 L1.5,18 C1.5,19.379 2.622,20.5 4,20.5 L20,20.5 C21.379,20.5 22.5,19.379 22.5,18 L22.5,12 C22.5,11.924 22.48,11.854 22.45,11.79 Z M5.898,5.332 C6.153,4.819 6.667,4.5 7.24,4.5 L16.76,4.5 C17.333,4.5 17.848,4.819 18.103,5.333 L21.19,11.5 L16,11.5 C15.833,11.5 15.677,11.583 15.584,11.723 L13.732,14.5 L10.267,14.5 L8.415,11.723 C8.323,11.583 8.167,11.5 8,11.5 L2.81,11.5 L5.898,5.332 Z M20,19.5 L4,19.5 C3.173,19.5 2.5,18.827 2.5,18 L2.5,12.5 L7.732,12.5 L9.584,15.277 C9.677,15.416 9.833,15.5 10,15.5 L14,15.5 C14.167,15.5 14.323,15.416 14.416,15.277 L16.268,12.5 L21.5,12.5 L21.5,18 C21.5,18.827 20.827,19.5 20,19.5 Z" id="Shape" fill="#000000" fill-rule="nonzero"></path>
    </g>
</svg>
